images/logo.svg

<svg width="176" height="52" viewBox="0 0 176 52" fill="none" xmlns="http://www.w3.org/2000/svg">
<path d="M7.76534 23.3826L10.4107 22.0738L14.592 15.7919L15.872 15.2685L17.2374 21.6376L15.4454 21.8993L14.08 19.2819L13.056 23.3826H17.5787L22.272 24.604L24.1494 23.3826L27.3067 26.698L28.672 20.5906L30.8907 22.8591L32.256 20.9396L34.4747 20.3289L37.7174 17.2752L38.2294 15.7919L40.8747 16.2282L41.9841 17.7114L40.0214 21.8993L44.8854 19.3691V18.1476L46.7627 17.7114L48.8107 19.8054L50.8587 17.2752V15.5302L54.1867 13.1745L55.5521 11.1678H57.6854L61.4401 3.40268L64.6828 0L65.8774 1.91946L64.0001 4.36242L64.6828 5.93289L66.4748 6.28188L67.9254 12.7383V18.1476L70.4854 21.7248L71.7654 26.698L67.3281 23.8188L65.3654 15.5302L64.1707 15.7919L64.0001 21.3758L60.7574 26.698L59.8187 34.8121L62.0374 35.3356L62.9761 34.2013L65.1094 36.6443L66.7307 43.9732L66.5601 48.6846H64.5121L63.7441 42.0537L62.2934 44.0604L59.1361 43.3624L56.5761 41.1812L53.6747 42.2282L53.8454 46.9396L51.5414 47.5503L48.1281 50.1678L44.0321 49.6443L42.4107 48.6846L39.8507 49.1208L40.7041 50.1678L38.6561 51.3893L37.0347 50.604L33.9627 52L29.2694 49.6443L27.4774 45.4564L25.9414 45.6309L24.1494 44.1477L24.064 43.0134L18.3467 42.4027L17.408 45.5436L13.824 43.8859L12.032 40.8322H8.19201L7.76534 45.7181L5.54667 46.4161L4.43734 50.8658L3.584 50.0805L0 40.745L4.26667 38.651L3.584 34.5503L2.90134 30.3624L4.77867 27.6577L4.18134 26L6.74134 23.2081L7.76534 23.3826ZM64.5121 33.6779L68.4374 39.6107L69.7174 39.0872L68.0961 36.6443L64.5121 32.8054V33.6779ZM24.4054 21.6376V19.8926L27.392 17.7114L29.952 16.4027H26.9654L24.32 17.9732L22.6987 19.4564V21.6376H24.4054Z" fill="white"/>
<path d="M89.8314 41.0004H94.5546V35.8186H97.171C101.138 35.8186 103.797 33.4749 103.797 29.7164C103.797 26.0004 101.206 23.5459 97.3409 23.5459H89.8314V41.0004ZM94.5546 32.1368V27.33H96.2196C97.8761 27.33 98.87 28.2164 98.87 29.7164C98.87 31.2078 97.8761 32.1368 96.2196 32.1368H94.5546Z" fill="white"/>
<path d="M111.604 41.2391C115.851 41.2391 118.366 38.5118 118.366 34.4891C118.366 30.4664 115.851 27.7391 111.604 27.7391C107.356 27.7391 104.842 30.4664 104.842 34.4891C104.842 38.5118 107.356 41.2391 111.604 41.2391ZM111.638 37.7618C110.381 37.7618 109.633 36.509 109.633 34.455C109.633 32.401 110.381 31.1482 111.638 31.1482C112.827 31.1482 113.575 32.401 113.575 34.455C113.575 36.509 112.827 37.7618 111.638 37.7618Z" fill="white"/>
<path d="M126.555 41.2391C130.42 41.2391 132.79 39.0146 132.841 35.5459H128.492C128.39 36.9181 127.651 37.6595 126.623 37.6595C125.391 37.6595 124.584 36.6027 124.584 34.455C124.584 32.3073 125.391 31.2504 126.623 31.2504C127.659 31.2504 128.364 31.9919 128.492 33.3641H132.841C132.816 29.955 130.395 27.7391 126.555 27.7391C122.308 27.7391 119.793 30.4664 119.793 34.4891C119.793 38.5118 122.308 41.2391 126.555 41.2391Z" fill="white"/>
<path d="M141.062 41.2391C144.928 41.2391 147.298 39.0146 147.349 35.5459H142.999C142.897 36.9181 142.158 37.6595 141.13 37.6595C139.899 37.6595 139.092 36.6027 139.092 34.455C139.092 32.3073 139.899 31.2504 141.13 31.2504C142.167 31.2504 142.872 31.9919 142.999 33.3641H147.349C147.323 29.955 144.902 27.7391 141.062 27.7391C136.815 27.7391 134.3 30.4664 134.3 34.4891C134.3 38.5118 136.815 41.2391 141.062 41.2391Z" fill="white"/>
<path d="M153.701 35.0004V27.9095H149.283V41.0004H153.701L157.337 33.8754V41.0004H161.754V27.9095H157.337L153.701 35.0004Z" fill="white"/>
<path d="M171.651 41.0004H176V27.9095H169.884C166.12 27.9095 163.742 29.8186 163.767 32.4777C163.75 33.9692 164.642 35.205 166.205 35.9379L163.631 41.0004H167.947L170.147 36.6709H171.651V41.0004ZM171.651 33.8414H169.986C168.737 33.8414 168.159 33.2277 168.185 32.6482C168.159 32.1027 168.703 31.4209 169.884 31.4209H171.651V33.8414Z" fill="white"/>
</svg>

<svg xmlns="http://www.w3.org/2000/svg" width="176" height="52" fill="none"><path fill="#fff" d="m7.765 23.383 2.646-1.31 4.181-6.281 1.28-.524 1.365 6.37-1.792.261-1.365-2.617-1.024 4.1h4.523l4.693 1.222 1.877-1.221 3.158 3.315 1.365-6.107 2.219 2.268 1.365-1.92 2.219-.61 3.242-3.054.512-1.483 2.646.436 1.11 1.483L40.02 21.9l4.864-2.53v-1.221l1.878-.437 2.048 2.094 2.048-2.53V15.53l3.328-2.355 1.365-2.007h2.133l3.755-7.765L64.683 0l1.194 1.92L64 4.361l.683 1.57 1.792.35 1.45 6.456v5.41l2.56 3.577 1.28 4.973-4.437-2.88-1.963-8.288-1.194.262-.17 5.584-3.244 5.322-.938 8.114 2.218.524.94-1.135 2.132 2.443 1.622 7.33-.17 4.71h-2.049l-.768-6.63-1.45 2.006-3.158-.698-2.56-2.18-2.901 1.046.17 4.712-2.304.61-3.413 2.618-4.096-.524-1.621-.96-2.56.437.853 1.047-2.048 1.221-1.621-.785L33.963 52l-4.694-2.356-1.792-4.188-1.536.175-1.792-1.483-.085-1.135-5.717-.61-.939 3.14-3.584-1.657-1.792-3.054h-3.84l-.427 4.886-2.218.698-1.11 4.45-.853-.785L0 40.745l4.267-2.094-.683-4.1-.683-4.189 1.878-2.704L4.18 26l2.56-2.792 1.024.175Zm56.747 10.295 3.925 5.933 1.28-.524-1.62-2.443-3.585-3.839v.873Zm-40.107-12.04v-1.745l2.987-2.182 2.56-1.308h-2.987l-2.645 1.57-1.621 1.483v2.182h1.706ZM89.831 41h4.724V35.82h2.616c3.967 0 6.626-2.344 6.626-6.103 0-3.716-2.591-6.17-6.456-6.17h-7.51V41Zm4.724-8.863V27.33h1.665c1.656 0 2.65.886 2.65 2.386 0 1.492-.994 2.42-2.65 2.42h-1.665ZM111.604 41.24c4.247 0 6.762-2.728 6.762-6.75 0-4.024-2.515-6.75-6.762-6.75-4.248 0-6.762 2.726-6.762 6.75 0 4.022 2.514 6.75 6.762 6.75Zm.034-3.478c-1.257 0-2.005-1.253-2.005-3.307 0-2.054.748-3.307 2.005-3.307 1.189 0 1.937 1.253 1.937 3.307 0 2.054-.748 3.307-1.937 3.307ZM126.555 41.24c3.865 0 6.235-2.225 6.286-5.694h-4.349c-.102 1.372-.841 2.114-1.869 2.114-1.232 0-2.039-1.057-2.039-3.205s.807-3.205 2.039-3.205c1.036 0 1.741.742 1.869 2.114h4.349c-.025-3.409-2.446-5.625-6.286-5.625-4.247 0-6.762 2.727-6.762 6.75s2.515 6.75 6.762 6.75ZM141.062 41.24c3.866 0 6.236-2.225 6.287-5.694h-4.35c-.102 1.372-.841 2.114-1.869 2.114-1.231 0-2.038-1.057-2.038-3.205s.807-3.205 2.038-3.205c1.037 0 1.742.742 1.869 2.114h4.35c-.026-3.409-2.447-5.625-6.287-5.625-4.247 0-6.762 2.727-6.762 6.75s2.515 6.75 6.762 6.75ZM153.701 35v-7.09h-4.418V41h4.418l3.636-7.125V41h4.417V27.91h-4.417L153.701 35ZM171.651 41H176V27.91h-6.116c-3.764 0-6.142 1.909-6.117 4.568-.017 1.491.875 2.727 2.438 3.46L163.631 41h4.316l2.2-4.33h1.504V41Zm0-7.159h-1.665c-1.249 0-1.827-.613-1.801-1.193-.026-.545.518-1.227 1.699-1.227h1.767v2.42Z"/></svg>
